!!!OTL: Schönster Schatz, willst du' s erlauben (156b), S. 341
!!!id: T0327
**kern
*clefG2
*k[b-]
*F:
{4c
=1
4.f
8a
4cc
8a
8a
=2
4.g
8a
4g}
=3
{8g
8a
=4
4.b-
8b-
4b-
8cc
8b-
=5
4a
8f
8f
4f}
=6
{8f
8f
=7
4.a
8cc
4ff
8ee
8dd
=8
4.cc
8a
4a}
=9
{8dd
8dd
=10
4cc
4g
4b-
8a
8g
=11
4f}
2r
==
*-
!!!minrhy: 8
!!!meters: 4/4 ]  ZZ[4
!!!cut: Schönster Schatz, willst du' s erlauben (156b), S. 341
!!!reg: Luxemburg
!!!trd: Singendes Volk, Esch-Alzette 1937, posth.
!!!rhy1: X_  X_.XX_XX  X_.XX_
!!!rhy2: XX  X_.XX_XX  X_XXX_
!!!key: T0327  08  F 4/4 ]  ZZ[4
!!!mod: HEPTATONIK IONISCH]  AMBITUS[11
!!!kad: 2131
!!!akz: 1522_4431_3+153_541_
!!!fot: 'a__b__c__d__
!!!for: 'a__b__av_c__
!!!fok: '^a_^d_^a_\__
!! PHRAS[AUFTAKTIG]
!!!fkt: historische, Kriegs- und Soldatenlieder, Liebeslied
!!!bem: Heffingen, fff Anna Kimmel, 1932
!! THILL, Mathias:
!! PR[26] 2K[8] 2G[16] 3K[3] 3G[0] 4A[3] 4Ü[0] 5A[0] 6K[0] 6G[3]
!! 7K[0] 7G[0] 8A[0] MEHR[0] SI[32] ABS[38] SR[24] SP[8]
!! ST[12] 2k[13] 2g[24] 3k[0] 3g[3] 4d[3] 4ü[0] 5d[0] 6k[0] 6g[0]
!! 7k[0] 7g[0] 8d[0] mehr[0] si[42] dm[-10] sr[37] sp[5]
!! 1F[36] 2F[57] 3F[0] 4F[0] LF[0] 2P[7] 3P[0] 4P[0] TRI[0] DF[3] AB[42]
!! TF[0] U3K[0] U3[0] U4[0] U4Ü[0] U5[3] U6K[0] U6[0] U7K[0] U7[0]
!! N1[13] N2K[0] N2[15] N3K[0] N3[23] N4[18] N4Ü[0] N5[15] N6K[0] N6[13]
!!!n7k: 0] N7[0] O1[0] O2K[0] O2[0] O3K[0] O3[0] HÖ[0
